icons/fill-new-other-refrigerator.svg

<svg xmlns="http://www.w3.org/2000/svg" width="32px" height="32px" viewBox="0 0 32 32" version="1.1">
    <title>fill-new-other-refrigerator</title>
    <g id="fill-new-other-refrigerator" stroke-width="1" fill-rule="evenodd">
        <path d="M26,16 L26,29 C26,29.5522847 25.5522847,30 25,30 L7,30 C6.44771525,30 6,29.5522847 6,29 L6,16 L26,16 Z M11,18 C10.4477153,18 10,18.4477153 10,19 L10,20 C10,20.5522847 10.4477153,21 11,21 C11.5522847,21 12,20.5522847 12,20 L12,19 C12,18.4477153 11.5522847,18 11,18 Z M25,2 C25.5522847,2 26,2.44771525 26,3 L26,14 L6,14 L6,3 C6,2.44771525 6.44771525,2 7,2 L25,2 Z M11,9 C10.4477153,9 10,9.44771525 10,10 L10,11 C10,11.5522847 10.4477153,12 11,12 C11.5522847,12 12,11.5522847 12,11 L12,10 C12,9.44771525 11.5522847,9 11,9 Z" id="&#24418;&#29366;" />
    </g>
</svg>

<svg xmlns="http://www.w3.org/2000/svg" viewBox="0 0 32 32"><path fill="currentColor" d="M26 16v13a1 1 0 0 1-1 1H7a1 1 0 0 1-1-1V16zm-15 2a1 1 0 0 0-1 1v1a1 1 0 0 0 2 0v-1a1 1 0 0 0-1-1M25 2a1 1 0 0 1 1 1v11H6V3a1 1 0 0 1 1-1zM11 9a1 1 0 0 0-1 1v1a1 1 0 0 0 2 0v-1a1 1 0 0 0-1-1"/></svg>
